symbols/web/emergency_share/materialsymbolsrounded/emergency_share_wght600fill1_24px.svg

<svg xmlns="http://www.w3.org/2000/svg" height="24" width="24"><path d="M11 23.55q-2.675-2.425-4-4.512-1.325-2.088-1.325-3.888 0-2.7 1.85-4.588Q9.375 8.675 12 8.675q2.625 0 4.475 1.887 1.85 1.888 1.85 4.588 0 1.8-1.325 3.888-1.325 2.087-4 4.512-.4.375-1 .375t-1-.375Zm1-6.6q.8 0 1.375-.575T13.95 15q0-.8-.575-1.375T12 13.05q-.8 0-1.375.575T10.05 15q0 .8.575 1.375T12 16.95Zm.025-10.75q-.7 0-1.375.2T9.375 7q-.425.3-.925.275-.5-.025-.85-.375-.35-.375-.337-.85.012-.475.412-.8.975-.7 2.075-1.075t2.275-.375q1.15 0 2.25.375T16.35 5.25q.4.325.413.8.012.475-.363.85-.35.35-.838.375-.487.025-.937-.275-.6-.4-1.262-.6-.663-.2-1.338-.2Zm0-4q-1.475 0-2.862.487-1.388.488-2.588 1.438-.4.3-.9.3t-.875-.35q-.375-.35-.35-.85.025-.5.4-.825Q6.425 1.125 8.25.462 10.075-.2 12.025-.2t3.763.662Q17.6 1.125 19.15 2.4q.4.325.425.812.025.488-.325.863-.35.35-.862.362-.513.013-.913-.287Q16.3 3.2 14.938 2.7q-1.363-.5-2.913-.5Z"/></svg>

<svg xmlns="http://www.w3.org/2000/svg" height="24" width="24"><path d="M11 23.55Q8.325 21.125 7 19.038Q5.675 16.95 5.675 15.15Q5.675 12.45 7.525 10.562Q9.375 8.675 12 8.675Q14.625 8.675 16.475 10.562Q18.325 12.45 18.325 15.15Q18.325 16.95 17 19.038Q15.675 21.125 13 23.55Q12.6 23.925 12 23.925Q11.4 23.925 11 23.55ZM12 16.95Q12.8 16.95 13.375 16.375Q13.95 15.8 13.95 15Q13.95 14.2 13.375 13.625Q12.8 13.05 12 13.05Q11.2 13.05 10.625 13.625Q10.05 14.2 10.05 15Q10.05 15.8 10.625 16.375Q11.2 16.95 12 16.95ZM12.025 6.2Q11.325 6.2 10.65 6.4Q9.975 6.6 9.375 7Q8.95 7.3 8.45 7.275Q7.95 7.25 7.6 6.9Q7.25 6.525 7.263 6.05Q7.275 5.575 7.675 5.25Q8.65 4.55 9.75 4.175Q10.85 3.8 12.025 3.8Q13.175 3.8 14.275 4.175Q15.375 4.55 16.35 5.25Q16.75 5.575 16.763 6.05Q16.775 6.525 16.4 6.9Q16.05 7.25 15.562 7.275Q15.075 7.3 14.625 7Q14.025 6.6 13.363 6.4Q12.7 6.2 12.025 6.2ZM12.025 2.2Q10.55 2.2 9.163 2.687Q7.775 3.175 6.575 4.125Q6.175 4.425 5.675 4.425Q5.175 4.425 4.8 4.075Q4.425 3.725 4.45 3.225Q4.475 2.725 4.85 2.4Q6.425 1.125 8.25 0.462Q10.075 -0.2 12.025 -0.2Q13.975 -0.2 15.788 0.462Q17.6 1.125 19.15 2.4Q19.55 2.725 19.575 3.212Q19.6 3.7 19.25 4.075Q18.9 4.425 18.388 4.437Q17.875 4.45 17.475 4.15Q16.3 3.2 14.938 2.7Q13.575 2.2 12.025 2.2Z"/></svg>
